!! 00053] TT[KA
!! Kassette von Frau Li Wenzhen, Peking - Zum Gesangsheft
!!!OTL: Yigen zhugan rongyi wan
!!!ARE: Asia, China,ÿHunan
!! Ethnic Group: Han
!! MM, Seite 23, 2
!!!SCT: C1135
!!!YEM: Copyright 1995, estate of Helmut Schaffrath.
**kern
*ICvox
*Ivox
*M4/4
*k[]
*C:
{8a
8g
8a
8cc
8.e
16g
4e
=1
8a
8g
8a
8ee
8.c
16a
4cc}
=2
{8cc
8a
4ee
8dd
8ee
4a
=3
8.cc
16a
8g
8a
2e}
=4
{8ee
8ee
4gg
8ee
16ee
16gg
4a
=5
8ee
8ee
8.gg
16ee
16dd
16ee
8cc
4dd}
=6
{8ee
16cc
16dd
4ee
8dd
8ee
4a
=7
4cc
8a
8e
2g}
=8
{8.a
16cc
8a
8g
16g
8e
16a
4g
=9
8a
8g
8a
8ee
8cc
8a
4cc}
=10
{8.ee
16ee
8ee
8ee
8gg
16ee
16gg
8ee
8a
=11
8.cc
16cc
8cc
8cc
8ee
8cc
4a}
=12
{8a
8g
8a
8cc
8ee
4ee
8a
=13
8.a
16cc
8a
8g
2e}
==
!!!AGN: Xiaodiao. Shenghuo zheli
!! Die Stuecke sind meist uebersteuert, also verzerrt.
!!    Wenig Verzierungen, Glissandi. Grundtonangabe: 3=C .
!!!ONB: ESAC (Essen Associative Code) Database: CHINA
!!!AMT: simple quadruple
!!!AIN: vox
!!!EED: Helmut Schaffrath
!!!EEV: 1.0
*-
